svg/Tango/emblems/emblem-unreadable.svg

<?xml version="1.0" encoding="UTF-8" standalone="no"?>
<!-- Created with Inkscape (http://www.inkscape.org/) -->
<svg
   xmlns:dc="http://purl.org/dc/elements/1.1/"
   xmlns:cc="http://creativecommons.org/ns#"
   xmlns:rdf="http://www.w3.org/1999/02/22-rdf-syntax-ns#"
   xmlns:svg="http://www.w3.org/2000/svg"
   xmlns="http://www.w3.org/2000/svg"
   xmlns:xlink="http://www.w3.org/1999/xlink"
   xmlns:sodipodi="http://sodipodi.sourceforge.net/DTD/sodipodi-0.dtd"
   xmlns:inkscape="http://www.inkscape.org/namespaces/inkscape"
   inkscape:export-ydpi="90.000000"
   inkscape:export-xdpi="90.000000"
   inkscape:export-filename="/home/jimmac/Desktop/wi-fi.png"
   width="48px"
   height="48px"
   id="svg11300"
   sodipodi:version="0.32"
   inkscape:version="0.46"
   sodipodi:docbase="/home/jimmac/src/cvs/tango-icon-theme/scalable/emblems"
   sodipodi:docname="emblem-unreadable.svg"
   inkscape:output_extension="org.inkscape.output.svg.inkscape">
  <defs
     id="defs3">
    <inkscape:perspective
       sodipodi:type="inkscape:persp3d"
       inkscape:vp_x="0 : 24 : 1"
       inkscape:vp_y="0 : 1000 : 0"
       inkscape:vp_z="48 : 24 : 1"
       inkscape:persp3d-origin="24 : 16 : 1"
       id="perspective57" />
    <radialGradient
       inkscape:collect="always"
       xlink:href="#linearGradient5060"
       id="radialGradient6719"
       gradientUnits="userSpaceOnUse"
       gradientTransform="matrix(-2.774389,0,0,1.969706,112.7623,-872.8854)"
       cx="605.71429"
       cy="486.64789"
       fx="605.71429"
       fy="486.64789"
       r="117.14286" />
    <linearGradient
       inkscape:collect="always"
       id="linearGradient5060">
      <stop
         style="stop-color:black;stop-opacity:1;"
         offset="0"
         id="stop5062" />
      <stop
         style="stop-color:black;stop-opacity:0;"
         offset="1"
         id="stop5064" />
    </linearGradient>
    <radialGradient
       inkscape:collect="always"
       xlink:href="#linearGradient5060"
       id="radialGradient6717"
       gradientUnits="userSpaceOnUse"
       gradientTransform="matrix(2.774389,0,0,1.969706,-1891.633,-872.8854)"
       cx="605.71429"
       cy="486.64789"
       fx="605.71429"
       fy="486.64789"
       r="117.14286" />
    <linearGradient
       id="linearGradient5048">
      <stop
         style="stop-color:black;stop-opacity:0;"
         offset="0"
         id="stop5050" />
      <stop
         id="stop5056"
         offset="0.5"
         style="stop-color:black;stop-opacity:1;" />
      <stop
         style="stop-color:black;stop-opacity:0;"
         offset="1"
         id="stop5052" />
    </linearGradient>
    <linearGradient
       inkscape:collect="always"
       xlink:href="#linearGradient5048"
       id="linearGradient6715"
       gradientUnits="userSpaceOnUse"
       gradientTransform="matrix(2.774389,0,0,1.969706,-1892.179,-872.8854)"
       x1="302.85715"
       y1="366.64789"
       x2="302.85715"
       y2="609.50507" />
    <linearGradient
       inkscape:collect="always"
       id="linearGradient2719">
      <stop
         style="stop-color:#cc0000;stop-opacity:1;"
         offset="0"
         id="stop2721" />
      <stop
         style="stop-color:#cc0000;stop-opacity:0;"
         offset="1"
         id="stop2723" />
    </linearGradient>
    <linearGradient
       id="linearGradient2711">
      <stop
         style="stop-color:#f34e4e;stop-opacity:1;"
         offset="0"
         id="stop2713" />
      <stop
         style="stop-color:#ef2929;stop-opacity:0;"
         offset="1"
         id="stop2715" />
    </linearGradient>
    <linearGradient
       id="linearGradient11327">
      <stop
         style="stop-color:#7d6400;stop-opacity:1;"
         offset="0"
         id="stop11329" />
      <stop
         style="stop-color:#be9700;stop-opacity:1.0000000;"
         offset="1.0000000"
         id="stop11331" />
    </linearGradient>
    <linearGradient
       id="linearGradient2092">
      <stop
         id="stop2094"
         offset="0"
         style="stop-color:#fff7b0;stop-opacity:1;" />
      <stop
         style="stop-color:#ffec41;stop-opacity:1.0000000;"
         offset="0.20999999"
         id="stop2098" />
      <stop
         id="stop2293"
         offset="0.83999997"
         style="stop-color:#e2cc00;stop-opacity:1;" />
      <stop
         id="stop2100"
         offset="1"
         style="stop-color:#c3af00;stop-opacity:1;" />
    </linearGradient>
    <linearGradient
       id="linearGradient11335">
      <stop
         style="stop-color:#6f716d;stop-opacity:1;"
         offset="0"
         id="stop11337" />
      <stop
         style="stop-color:#9ea09c;stop-opacity:1.0000000;"
         offset="1.0000000"
         id="stop11339" />
    </linearGradient>
    <linearGradient
       id="linearGradient10591">
      <stop
         style="stop-color:#cad0c6;stop-opacity:1.0000000;"
         offset="0.0000000"
         id="stop10593" />
      <stop
         id="stop10599"
         offset="0.50000000"
         style="stop-color:#eaece9;stop-opacity:1.0000000;" />
      <stop
         style="stop-color:#c5cbc0;stop-opacity:1.0000000;"
         offset="1.0000000"
         id="stop10595" />
    </linearGradient>
    <linearGradient
       id="linearGradient11520">
      <stop
         id="stop11522"
         offset="0.0000000"
         style="stop-color:#ffffff;stop-opacity:1.0000000;" />
      <stop
         id="stop11524"
         offset="1.0000000"
         style="stop-color:#dcdcdc;stop-opacity:1.0000000;" />
    </linearGradient>
    <linearGradient
       id="linearGradient11508"
       inkscape:collect="always">
      <stop
         id="stop11510"
         offset="0"
         style="stop-color:#000000;stop-opacity:1;" />
      <stop
         id="stop11512"
         offset="1"
         style="stop-color:#000000;stop-opacity:0;" />
    </linearGradient>
    <radialGradient
       inkscape:collect="always"
       xlink:href="#linearGradient11508"
       id="radialGradient1348"
       gradientUnits="userSpaceOnUse"
       gradientTransform="matrix(1.000000,0.000000,0.000000,0.338462,-1.435476e-15,29.48178)"
       cx="30.203562"
       cy="44.565483"
       fx="30.203562"
       fy="44.565483"
       r="6.5659914" />
    <radialGradient
       inkscape:collect="always"
       xlink:href="#linearGradient11520"
       id="radialGradient1366"
       gradientUnits="userSpaceOnUse"
       gradientTransform="matrix(1.995058,-1.651527e-32,0.000000,1.995058,-24.32488,-35.70087)"
       cx="24.445690"
       cy="35.878170"
       fx="24.445690"
       fy="35.878170"
       r="20.530962" />
    <radialGradient
       inkscape:collect="always"
       xlink:href="#linearGradient2719"
       id="radialGradient2725"
       cx="24.445681"
       cy="46.957848"
       fx="24.445681"
       fy="46.957848"
       r="16.554319"
       gradientTransform="matrix(2.670835,-1.66183e-17,1.650931e-17,2.653312,-40.84471,-77.78951)"
       gradientUnits="userSpaceOnUse" />
  </defs>
  <sodipodi:namedview
     stroke="#eeeeec"
     fill="#cc0000"
     id="base"
     pagecolor="#ffffff"
     bordercolor="#666666"
     borderopacity="0.25490196"
     inkscape:pageopacity="0.0"
     inkscape:pageshadow="2"
     inkscape:zoom="1"
     inkscape:cx="49.436623"
     inkscape:cy="35.750047"
     inkscape:current-layer="layer1"
     showgrid="false"
     inkscape:grid-bbox="true"
     inkscape:document-units="px"
     inkscape:showpageshadow="false"
     inkscape:window-width="1002"
     inkscape:window-height="818"
     inkscape:window-x="432"
     inkscape:window-y="30" />
  <metadata
     id="metadata4">
    <rdf:RDF>
      <cc:Work
         rdf:about="">
        <dc:format>image/svg+xml</dc:format>
        <dc:type
           rdf:resource="http://purl.org/dc/dcmitype/StillImage" />
        <dc:creator>
          <cc:Agent>
            <dc:title>Jakub Steiner</dc:title>
          </cc:Agent>
        </dc:creator>
        <dc:source>http://jimmac.musichall.cz</dc:source>
        <cc:license
           rdf:resource="http://creativecommons.org/licenses/publicdomain/" />
        <dc:title>Unreadable</dc:title>
        <dc:subject>
          <rdf:Bag>
            <rdf:li>emblem</rdf:li>
            <rdf:li>access</rdf:li>
            <rdf:li>denied</rdf:li>
            <rdf:li>unreadable</rdf:li>
          </rdf:Bag>
        </dc:subject>
      </cc:Work>
      <cc:License
         rdf:about="http://creativecommons.org/licenses/publicdomain/">
        <cc:permits
           rdf:resource="http://creativecommons.org/ns#Reproduction" />
        <cc:permits
           rdf:resource="http://creativecommons.org/ns#Distribution" />
        <cc:permits
           rdf:resource="http://creativecommons.org/ns#DerivativeWorks" />
      </cc:License>
    </rdf:RDF>
  </metadata>
  <g
     id="layer1"
     inkscape:label="Layer 1"
     inkscape:groupmode="layer">
    <g
       transform="matrix(2.304988e-2,0,0,2.086758e-2,45.00013,40.24675)"
       id="g6707">
      <rect
         style="opacity:0.40206185;color:black;fill:url(#linearGradient6715);fill-opacity:1;fill-rule:nonzero;stroke:none;stroke-width:1;stroke-linecap:round;stroke-linejoin:miter;marker:none;marker-start:none;marker-mid:none;marker-end:none;stroke-miterlimit:4;stroke-dasharray:none;stroke-dashoffset:0;stroke-opacity:1;visibility:visible;display:inline;overflow:visible"
         id="rect6709"
         width="1339.6335"
         height="478.35718"
         x="-1559.2523"
         y="-150.69685" />
      <path
         style="opacity:0.40206185;color:black;fill:url(#radialGradient6717);fill-opacity:1;fill-rule:nonzero;stroke:none;stroke-width:1;stroke-linecap:round;stroke-linejoin:miter;marker:none;marker-start:none;marker-mid:none;marker-end:none;stroke-miterlimit:4;stroke-dasharray:none;stroke-dashoffset:0;stroke-opacity:1;visibility:visible;display:inline;overflow:visible"
         d="M -219.61876,-150.68038 C -219.61876,-150.68038 -219.61876,327.65041 -219.61876,327.65041 C -76.744594,328.55086 125.78146,220.48075 125.78138,88.454235 C 125.78138,-43.572302 -33.655436,-150.68036 -219.61876,-150.68038 z "
         id="path6711"
         sodipodi:nodetypes="cccc" />
      <path
         sodipodi:nodetypes="cccc"
         id="path6713"
         d="M -1559.2523,-150.68038 C -1559.2523,-150.68038 -1559.2523,327.65041 -1559.2523,327.65041 C -1702.1265,328.55086 -1904.6525,220.48075 -1904.6525,88.454235 C -1904.6525,-43.572302 -1745.2157,-150.68036 -1559.2523,-150.68038 z "
         style="opacity:0.40206185;color:black;fill:url(#radialGradient6719);fill-opacity:1;fill-rule:nonzero;stroke:none;stroke-width:1;stroke-linecap:round;stroke-linejoin:miter;marker:none;marker-start:none;marker-mid:none;marker-end:none;stroke-miterlimit:4;stroke-dasharray:none;stroke-dashoffset:0;stroke-opacity:1;visibility:visible;display:inline;overflow:visible" />
    </g>
    <rect
       ry="5.4548240"
       rx="5.4548240"
       y="3.5233452"
       x="4.4147282"
       height="40.061924"
       width="40.061924"
       id="rect11518"
       style="opacity:1.0000000;color:#000000;fill:url(#radialGradient1366);fill-opacity:1.0000000;fill-rule:evenodd;stroke:#9b9b9b;stroke-width:1.0000000;stroke-linecap:butt;stroke-linejoin:bevel;marker:none;marker-start:none;marker-mid:none;marker-end:none;stroke-miterlimit:10.000000;stroke-dasharray:none;stroke-dashoffset:0.0000000;stroke-opacity:1.0000000;visibility:visible;display:inline;overflow:visible" />
    <rect
       style="opacity:1.0000000;color:#000000;fill:none;fill-opacity:1.0000000;fill-rule:evenodd;stroke:#ffffff;stroke-width:0.99999976;stroke-linecap:butt;stroke-linejoin:bevel;marker:none;marker-start:none;marker-mid:none;marker-end:none;stroke-miterlimit:10.000000;stroke-dasharray:none;stroke-dashoffset:0.0000000;stroke-opacity:1.0000000;visibility:visible;display:inline;overflow:visible"
       id="rect11528"
       width="37.696587"
       height="37.696587"
       x="5.5973887"
       y="4.7060070"
       rx="4.2426391"
       ry="4.2426391" />
    <rect
       style="opacity:1;color:#000000;fill:url(#radialGradient2725);fill-opacity:1.0;fill-rule:evenodd;stroke:none;stroke-width:0.99999946;stroke-linecap:butt;stroke-linejoin:bevel;marker:none;marker-start:none;marker-mid:none;marker-end:none;stroke-miterlimit:10;stroke-dasharray:none;stroke-dashoffset:0;stroke-opacity:1;visibility:visible;display:inline;overflow:visible"
       id="rect2707"
       width="33.108639"
       height="32.891403"
       x="7.8913612"
       y="7.1085968"
       rx="2.7440348"
       ry="2.7440348"
       inkscape:r_cx="true"
       inkscape:r_cy="true" />
    <g
       id="g2703"
       transform="matrix(0.717647,0,0,0.717647,6.882353,6.6)"
       inkscape:r_cx="true"
       inkscape:r_cy="true"
       style="stroke:#eeeeec">
      <path
         inkscape:r_cy="true"
         inkscape:r_cx="true"
         id="path2698"
         d="M 16.25,15.25 L 32.5,31.5"
         style="opacity:1;color:#000000;fill:#204a87;fill-opacity:1;fill-rule:nonzero;stroke:#eeeeec;stroke-width:6.96721315;stroke-linecap:round;stroke-linejoin:round;marker:none;marker-start:none;marker-mid:none;marker-end:none;stroke-miterlimit:10;stroke-dasharray:none;stroke-dashoffset:0;stroke-opacity:1;visibility:visible;display:block;overflow:visible" />
      <path
         style="opacity:1;color:#000000;fill:#204a87;fill-opacity:1;fill-rule:nonzero;stroke:#eeeeec;stroke-width:6.96721315;stroke-linecap:round;stroke-linejoin:round;marker:none;marker-start:none;marker-mid:none;marker-end:none;stroke-miterlimit:10;stroke-dasharray:none;stroke-dashoffset:0;stroke-opacity:1;visibility:visible;display:block;overflow:visible"
         d="M 32.5,15.25 L 16.25,31.5"
         id="path2700"
         inkscape:r_cx="true"
         inkscape:r_cy="true" />
    </g>
  </g>
</svg>

<svg xmlns="http://www.w3.org/2000/svg" xmlns:xlink="http://www.w3.org/1999/xlink" viewBox="0 0 48 48"><defs><linearGradient id="3" gradientUnits="userSpaceOnUse" gradientTransform="matrix(2.77439 0 0 1.96971-1892.18-872.89)" y1="366.65" x2="0" y2="609.51"><stop stop-opacity="0"/><stop offset=".5"/><stop offset="1" stop-opacity="0"/></linearGradient><linearGradient id="1"><stop/><stop offset="1" stop-opacity="0"/></linearGradient><radialGradient id="4" gradientUnits="userSpaceOnUse" cx="24.446" cy="35.878" r="40.96"><stop stop-color="#fff"/><stop offset="1" stop-color="#dcdcdc"/></radialGradient><radialGradient xlink:href="#1" id="0" gradientUnits="userSpaceOnUse" gradientTransform="matrix(-2.77439 0 0 1.96971 112.76-872.89)" cx="605.71" cy="486.65" r="117.14"/><radialGradient xlink:href="#1" id="2" gradientUnits="userSpaceOnUse" gradientTransform="matrix(2.77439 0 0 1.96971-1891.63-872.89)" cx="605.71" cy="486.65" r="117.14"/><radialGradient id="5" cx="24.446" cy="46.958" r="16.554" gradientTransform="matrix(2.67083 0 0 2.65331-40.845-77.79)" gradientUnits="userSpaceOnUse"><stop stop-color="#c00"/><stop offset="1" stop-color="#c00" stop-opacity="0"/></radialGradient></defs><g color="#000"><g transform="matrix(.02305 0 0 .02087 45 40.25)"><path opacity=".402" fill="url(#3)" d="m-1559.25-150.7h1339.63v478.36h-1339.63z"/><path d="m-219.62-150.68c0 0 0 478.33 0 478.33 142.87.9 345.4-107.17 345.4-239.2 0-132.03-159.44-239.13-345.4-239.13" opacity=".402" fill="url(#2)"/><path d="m-1559.25-150.68c0 0 0 478.33 0 478.33-142.87.9-345.4-107.17-345.4-239.2 0-132.03 159.44-239.13 345.4-239.13" opacity=".402" fill="url(#0)"/></g><g fill-rule="evenodd"><g stroke-linejoin="bevel" stroke-miterlimit="10"><rect rx="5.455" y="3.523" x="4.415" height="40.06" width="40.06" fill="url(#4)" stroke="#9b9b9b"/><rect width="37.697" height="37.697" x="5.597" y="4.706" rx="4.243" fill="none" stroke="#fff"/></g><rect width="33.11" height="32.891" x="7.891" y="7.109" rx="2.744" fill="url(#5)"/></g><g transform="matrix(.71765 0 0 .71765 6.882 6.6)" stroke="#eeeeec" fill="#204a87" display="block" stroke-linejoin="round" stroke-linecap="round" stroke-width="6.967" stroke-miterlimit="10"><path d="m16.25 15.25l16.25 16.25"/><path d="m32.5 15.25l-16.25 16.25"/></g></g></svg>
